src/icons/support-deployment.svg

<?xml version="1.0" encoding="UTF-8"?>
<svg width="60px" height="60px" viewBox="0 0 60 60" version="1.1" xmlns="http://www.w3.org/2000/svg" xmlns:xlink="http://www.w3.org/1999/xlink">
    <!-- Generator: Sketch 59 (86127) - https://sketch.com -->
    <title>HDL/Icon/Standard/Support/deployment</title>
    <desc>Created with Sketch.</desc>
    <g id="Colors" stroke="none" stroke-width="1" fill="none" fill-rule="evenodd">
        <g id="Support-Icons" transform="translate(-100.000000, -479.000000)">
            <g id="HDL/Icon/Standard/Support/deployment" transform="translate(100.000000, 479.000000)">
                <g id="ICON">
                    <circle id="Oval" fill="#D4ECFC" cx="30" cy="30" r="30"></circle>
                    <g id="HDL/Icon/Larger/Command/approval" transform="translate(19.000000, 19.000000)" fill="#25A6F7">
                        <path d="M12.2964706,6.07058824 C12.0423529,5.80235294 11.6894118,5.64705882 11.2941176,5.64705882 C10.5176471,5.64705882 9.88235294,6.28235294 9.88235294,7.05882353 C9.88235294,7.45411765 10.0376471,7.80705882 10.2917647,8.06117647 L13.1152941,10.8847059 C13.3694118,11.1388235 13.7223529,11.2941176 14.1176471,11.2941176 C14.5129412,11.2941176 14.8658824,11.1388235 15.12,10.8847059 L22.1788235,3.82588235 C22.4329412,3.57176471 22.5882353,3.21882353 22.5882353,2.82352941 C22.5882353,2.04705882 21.9529412,1.41176471 21.1764706,1.41176471 C20.7811765,1.41176471 20.4282353,1.56705882 20.1741176,1.82117647 L14.1176471,7.89176471 L12.2964706,6.07058824 Z M19.6658824,10.32 C19.7082353,10.6447059 19.7647059,10.9552941 19.7647059,11.2941176 C19.7647059,15.9670588 15.9670588,19.7647059 11.2941176,19.7647059 C6.62117647,19.7647059 2.82352941,15.9670588 2.82352941,11.2941176 C2.82352941,6.62117647 6.62117647,2.82352941 11.2941176,2.82352941 C12.4376471,2.82352941 13.5388235,3.06352941 14.5411765,3.47294118 L16.6588235,1.35529412 C15.0635294,0.494117647 13.2423529,1.59872116e-14 11.2941176,1.59872116e-14 C5.05411765,1.59872116e-14 -4.08562073e-14,5.05411765 -4.08562073e-14,11.2941176 C-4.08562073e-14,17.5341176 5.05411765,22.5882353 11.2941176,22.5882353 C17.5341176,22.5882353 22.5882353,17.5341176 22.5882353,11.2941176 C22.5882353,10.1223529 22.4047059,8.97882353 22.08,7.92 L19.6658824,10.32 Z" id="Shape"></path>
                    </g>
                </g>
            </g>
        </g>
    </g>
</svg>

<?xml version="1.0" encoding="utf-8"?>
<!-- Generator: Adobe Illustrator 20.1.0, SVG Export Plug-In . SVG Version: 6.00 Build 0)  -->
<svg version="1.1" id="Layer_1" xmlns="http://www.w3.org/2000/svg" xmlns:xlink="http://www.w3.org/1999/xlink" x="0px" y="0px"
	 viewBox="0 0 60 60" style="enable-background:new 0 0 60 60;" xml:space="preserve">
<style type="text/css">
	.st0{fill:#D4ECFC;}
	.st1{fill:#25A6F7;}
</style>
<title>HDL/Icon/Standard/Support/deployment</title>
<desc>Created with Sketch.</desc>
<g id="Colors">
	<g id="Support-Icons" transform="translate(-100.000000, -479.000000)">
		<g id="HDL_x2F_Icon_x2F_Standard_x2F_Support_x2F_deployment" transform="translate(100.000000, 479.000000)">
			<g id="ICON">
				<circle id="Oval" class="st0" cx="30" cy="30" r="30"/>
				<g id="HDL_x2F_Icon_x2F_Larger_x2F_Command_x2F_approval" transform="translate(19.000000, 19.000000)">
					<path id="Shape" class="st1" d="M12.3,6.1c-0.3-0.3-0.6-0.4-1-0.4c-0.8,0-1.4,0.6-1.4,1.4c0,0.4,0.2,0.7,0.4,1l2.8,2.8
						c0.3,0.3,0.6,0.4,1,0.4s0.7-0.2,1-0.4l7.1-7.1c0.3-0.3,0.4-0.6,0.4-1c0-0.8-0.6-1.4-1.4-1.4c-0.4,0-0.7,0.2-1,0.4l-6.1,6.1
						L12.3,6.1z M19.7,10.3c0,0.3,0.1,0.6,0.1,1c0,4.7-3.8,8.5-8.5,8.5S2.8,16,2.8,11.3s3.8-8.5,8.5-8.5c1.1,0,2.2,0.2,3.2,0.6
						l2.1-2.1C15.1,0.5,13.2,0,11.3,0C5.1,0,0,5.1,0,11.3s5.1,11.3,11.3,11.3s11.3-5.1,11.3-11.3c0-1.2-0.2-2.3-0.5-3.4L19.7,10.3z"
						/>
				</g>
			</g>
		</g>
	</g>
</g>
</svg>
